public/avatar/hat/120.svg

<svg xmlns:xlink="http://www.w3.org/1999/xlink" height="92.9" width="100.7" xmlns="http://www.w3.org/2000/svg"><use height="23.95" transform="translate(19.9 36.95)" width="34.85" xlink:href="#a"/><defs><g id="a" fill-rule="evenodd"><path d="M3.9-11.9q2.3.2 2.6 1.55.4 2.1-1.3 6.1l1.75-2.9.95-.05q.7.15.85.7.2.85-1.3 2.95l4.3-5q.6-.2 1.8.5 1.35.85.65 2.1-.85 1.5-3.8 4.35l2.1-1q2.1-1.1 2.45-.95.6.3 1 1.5.4 1.35-.3 2L11.7 1.4h2.6q.3.2.35 1.1 0 .95-.4 1.1l-4.9-.85q-9.7-.35-22 3.75-5.6-2.4-5.95-2.85-.35-.55.2-2.05.55-1.6 1.5-1.4l3.9 1.6q.5.2-3.65-5.05.25-1.7 1.8-3.05 1.3-1.2 2.1-1.15L-8.1-2.5q.9 1-1.75-4.6l.5-.75q.6-.55.9-.3.5.4 2.35 4.35l-.55-3.5q-.6-3.7-.25-4.25.4-.75 2.6-1.25l2.6.05 1 6.95q.05.2.6-2.35.7-3.05 1.25-3.35.7-.55 2.75-.4" transform="translate(18.75 12.8)"/><path d="m1.7-10.9 2.05-.15q1.7.25 1.95 1.35.15.85-.95 4.25-1 3.1-.65 3.3.8.45 3.15-4.4 1.25-.1 1 .3-2.5 3.75-2 4.45.4.6 5.8-5.9.4-.25 1.1.25.8.6.25 1.6L10.8-3.1q-2 2-1.65 2.4.85.95 5.15-2.2.55.1.95 1.05.4 1-.4 1.25L12.8.2Q11 1 10.85 1.5q0 .55 2.9.4.45.9.05 1.05l-2.45-.2q-14-.25-23.65 3l-5.55-2.7q-.3-.4.2-1.3t1.3-.75q4.3 2.05 4.55 1.7.2-.3-1.8-3.05-2.1-2.85-2.05-3.1.15-1.35 1.25-2.25.85-.75 1.5-.7Q-8.75-1-7.4-1.35q.85-.2-1.8-5.6l.9-.35q2.15 5.35 2.7 5.15 1.3-.4-.3-8.75.15-.65 1.7-1l1.85.1.45 4.2q.35 3.7.95 3.8Q.1-3.7.75-7.1q.75-3.7.95-3.8" fill="#eb662b" transform="translate(18.75 12.8)"/><path d="M-13.05 5.35q-3.65-1-4.8-2.3-.35-.5.3-1.5 2.8.35 5.55 2-.3 1.2-1.05 1.8M-14.4-5.7q3.55 3.85 4.6 6.4l-1.85 2.05-.15-.3-3.85-5.65q-.7-.9 1.25-2.5m7.2 4.35q.1-1.2-2-5.6l.1-.15q.45.3 1.85 4.15.8 1.4.65 2.2-.25.9-.55-.7l-.05.1m2-1.25q-.25-4-.75-7.55-.25-1.2 1.2-1.6 1.15-.2 1.45 7.2.15 1.55-.8 2.25-.95.7-1.1-.3" fill="#702813" transform="translate(18.75 12.8)"/><path d="m1.1-3.95-1.15.15q-.55.05-.3-.5.9-1.65 1.2-3.45l.55-2.65q.35-.7 1.4-.75.2 1.75-1.7 7.2M4.9-2.6l2.2-3.75q.2-.55.55-.3l-2.45 4q-.55.65-.3.05m2.05.4 4.95-5.4q.8-1.2.45.05L7.55-2q-.55.75-.6-.2m2.9 1.65q2.35-.8 4.4-2.35l.4.2.05.45q-.25.4-3.7 1.8-1.2.45-1.3.2l.15-.3m1.6 2.4 2.35.05.25.4-2.65-.2q-1.4-.55.05-.25" fill="#8e3519" transform="translate(18.75 12.8)"/><path d="m12.15 3-.9 2.65q1.25 2.2 1 3.95Q6.1 5.7.5 5.7q-5.85 0-10.5 2.75-2.35 1.35-3.5 2.7l1.3-3.25-1.5-2.25Q-5.55-7.1 3.95-3.6q4.8 1.8 8.2 6.6" transform="translate(18.75 12.8)"/><path d="M-2.35 2.25q0 1.3-.95 2.25-.9.95-2.2.95-3.15 0-3.15-3.2 0-1.3.9-2.2Q-6.8-.9-5.5-.9t2.2.95q.95.95.95 2.2" fill="#00bbfb" transform="translate(18.75 12.8)"/><path d="M-3.65 2.3q0 1.9-1.9 1.9t-1.9-1.9q0-1.9 1.9-1.9t1.9 1.9" fill="#ff0676" transform="translate(18.75 12.8)"/><path d="M-13-5.2q-.55-.75-.05-.55l2.7 3.15L-13-5.2m4.5-1.7q-.55-1.15.3-.15l.75 2L-8.5-6.9m5.2-4.25q0-1.65.7-.4l.15 4.15q-.7-1.9-.85-3.75m7.75 1.6q.15-.45.45-.65.4-.15.45.5.15.85-.45 2.85-.65 2.05-1.1 1.7-.6-.45.65-4.4M7.5-6q.4-.7.25 0-.1.7-1.3 2.45L7.5-6m4.9-.45q1.3-1.55.6.3-.35.8-1.5 2.1-1.25 1.4-1.35.9-.15-.7 2.25-3.3m1.95 5.1h.6q.25.2-.25.55-.6.45-2.2.9L11 .15q.15-.55 3.35-1.5m-.7 3.95q.9 0 0 .15-2.3.35-1.35-.15.25-.2 1.35 0" fill="#ffe877" transform="translate(18.75 12.8)"/><path d="m-11.9 9-.2-.5q.05-.65 1.25-1.3 3.9-2.05 3-1.35L-11.9 9M3.45 2.9q5.3.8 7.2 3.3 1 1.3.9 2.4-1.15-1.95-2.3-2.85-1.6-1.2-5.8-2.85" fill="#686767" transform="translate(18.75 12.8)"/><path d="M6.6 2.9q4.1.3 4.25 2.5-1-1.45-4.25-2.5" fill="#686767" transform="translate(18.75 12.8)"/></g></defs></svg>

<?xml version="1.0" encoding="UTF-8" standalone="no"?>
<svg xmlns:xlink="http://www.w3.org/1999/xlink" height="92.9px" width="100.7px" xmlns="http://www.w3.org/2000/svg">
  <g transform="matrix(1.0, 0.0, 0.0, 1.0, 38.65, 49.75)">
    <use height="23.95" transform="matrix(1.0, 0.0, 0.0, 1.0, -18.75, -12.8)" width="34.85" xlink:href="#shape0"/>
  </g>
  <defs>
    <g id="shape0" transform="matrix(1.0, 0.0, 0.0, 1.0, 18.75, 12.8)">
      <path d="M3.9 -11.9 Q6.2 -11.7 6.5 -10.35 6.9 -8.25 5.2 -4.25 L6.95 -7.15 7.9 -7.2 Q8.6 -7.05 8.75 -6.5 8.95 -5.65 7.45 -3.55 L11.75 -8.55 Q12.35 -8.75 13.55 -8.05 14.9 -7.2 14.2 -5.95 13.35 -4.45 10.4 -1.6 L12.5 -2.6 Q14.6 -3.7 14.95 -3.55 15.55 -3.25 15.95 -2.05 16.35 -0.7 15.65 -0.05 L11.7 1.4 14.3 1.4 Q14.6 1.6 14.65 2.5 14.65 3.45 14.25 3.6 L9.35 2.75 Q-0.35 2.4 -12.65 6.5 -18.25 4.1 -18.6 3.65 -18.95 3.1 -18.4 1.6 -17.85 0.0 -16.9 0.2 L-13.0 1.8 Q-12.5 2.0 -16.65 -3.25 -16.4 -4.95 -14.85 -6.3 -13.55 -7.5 -12.75 -7.45 L-8.1 -2.5 Q-7.2 -1.5 -9.85 -7.1 L-9.35 -7.85 Q-8.75 -8.4 -8.45 -8.15 -7.95 -7.75 -6.1 -3.8 L-6.65 -7.3 Q-7.25 -11.0 -6.9 -11.55 -6.5 -12.3 -4.3 -12.8 L-1.7 -12.75 -0.7 -5.8 Q-0.65 -5.6 -0.1 -8.15 0.6 -11.2 1.15 -11.5 1.85 -12.05 3.9 -11.9" fill="#000000" fill-rule="evenodd" stroke="none"/>
      <path d="M1.7 -10.9 L3.75 -11.05 Q5.45 -10.8 5.7 -9.7 5.85 -8.85 4.75 -5.45 3.75 -2.35 4.1 -2.15 4.9 -1.7 7.25 -6.55 8.5 -6.65 8.25 -6.25 5.75 -2.5 6.25 -1.8 6.65 -1.2 12.05 -7.7 12.45 -7.95 13.15 -7.45 13.95 -6.85 13.4 -5.85 L10.8 -3.1 Q8.8 -1.1 9.15 -0.7 10.0 0.25 14.3 -2.9 14.85 -2.8 15.25 -1.85 15.65 -0.85 14.85 -0.6 L12.8 0.2 Q11.0 1.0 10.85 1.5 10.85 2.05 13.75 1.9 14.2 2.8 13.8 2.95 L11.35 2.75 Q-2.65 2.5 -12.3 5.75 L-17.85 3.05 Q-18.15 2.65 -17.65 1.75 -17.15 0.85 -16.35 1.0 -12.05 3.05 -11.8 2.7 -11.6 2.4 -13.6 -0.35 -15.7 -3.2 -15.65 -3.45 -15.5 -4.8 -14.4 -5.7 -13.55 -6.45 -12.9 -6.4 -8.75 -1.0 -7.4 -1.35 -6.55 -1.55 -9.2 -6.95 L-8.3 -7.3 Q-6.15 -1.95 -5.6 -2.15 -4.3 -2.55 -5.9 -10.9 -5.75 -11.55 -4.2 -11.9 L-2.35 -11.8 -1.9 -7.6 Q-1.55 -3.9 -0.95 -3.8 0.1 -3.7 0.75 -7.1 1.5 -10.8 1.7 -10.9" fill="#eb662b" fill-rule="evenodd" stroke="none"/>
      <path d="M-13.05 5.35 Q-16.7 4.35 -17.85 3.05 -18.2 2.55 -17.55 1.55 -14.75 1.9 -12.0 3.55 -12.3 4.75 -13.05 5.35" fill="#702813" fill-rule="evenodd" stroke="none"/>
      <path d="M-14.4 -5.7 Q-10.85 -1.85 -9.8 0.7 L-11.65 2.75 -11.8 2.45 -15.65 -3.2 Q-16.35 -4.1 -14.4 -5.7" fill="#702813" fill-rule="evenodd" stroke="none"/>
      <path d="M-7.2 -1.35 Q-7.1 -2.55 -9.2 -6.95 L-9.1 -7.1 Q-8.65 -6.8 -7.25 -2.95 -6.45 -1.55 -6.6 -0.75 -6.85 0.15 -7.15 -1.45 L-7.2 -1.35" fill="#702813" fill-rule="evenodd" stroke="none"/>
      <path d="M-5.2 -2.6 Q-5.45 -6.6 -5.95 -10.15 -6.2 -11.35 -4.75 -11.75 -3.6 -11.95 -3.3 -4.55 -3.15 -3.0 -4.1 -2.3 -5.05 -1.6 -5.2 -2.6" fill="#702813" fill-rule="evenodd" stroke="none"/>
      <path d="M1.1 -3.95 L-0.05 -3.8 Q-0.6 -3.75 -0.35 -4.3 0.55 -5.95 0.85 -7.75 L1.4 -10.4 Q1.75 -11.1 2.8 -11.15 3.0 -9.4 1.1 -3.95" fill="#8e3519" fill-rule="evenodd" stroke="none"/>
      <path d="M4.9 -2.6 L7.1 -6.35 Q7.3 -6.9 7.65 -6.65 L5.2 -2.65 Q4.65 -2.0 4.9 -2.6" fill="#8e3519" fill-rule="evenodd" stroke="none"/>
      <path d="M6.95 -2.2 L11.9 -7.6 Q12.7 -8.8 12.35 -7.55 L7.55 -2.0 Q7.0 -1.25 6.95 -2.2" fill="#8e3519" fill-rule="evenodd" stroke="none"/>
      <path d="M9.85 -0.55 Q12.2 -1.35 14.25 -2.9 L14.65 -2.7 14.7 -2.25 Q14.45 -1.85 11.0 -0.45 9.8 0.0 9.7 -0.25 L9.85 -0.55" fill="#8e3519" fill-rule="evenodd" stroke="none"/>
      <path d="M11.45 1.85 L13.8 1.9 14.05 2.3 11.4 2.1 Q10.0 1.55 11.45 1.85" fill="#8e3519" fill-rule="evenodd" stroke="none"/>
      <path d="M12.15 3.0 L11.25 5.65 Q12.5 7.85 12.25 9.6 6.1 5.7 0.5 5.7 -5.35 5.7 -10.0 8.45 -12.35 9.8 -13.5 11.15 L-12.2 7.9 -13.7 5.65 Q-5.55 -7.1 3.95 -3.6 8.75 -1.8 12.15 3.0" fill="#000000" fill-rule="evenodd" stroke="none"/>
      <path d="M-2.35 2.25 Q-2.35 3.55 -3.3 4.5 -4.2 5.45 -5.5 5.45 -8.65 5.45 -8.65 2.25 -8.65 0.95 -7.75 0.05 -6.8 -0.9 -5.5 -0.9 -4.2 -0.9 -3.3 0.05 -2.35 1.0 -2.35 2.25" fill="#00bbfb" fill-rule="evenodd" stroke="none"/>
      <path d="M-3.65 2.3 Q-3.65 4.2 -5.55 4.2 -7.45 4.2 -7.45 2.3 -7.45 0.4 -5.55 0.4 -3.65 0.4 -3.65 2.3" fill="#ff0676" fill-rule="evenodd" stroke="none"/>
      <path d="M-13.0 -5.2 Q-13.55 -5.95 -13.05 -5.75 L-10.35 -2.6 -13.0 -5.2" fill="#ffe877" fill-rule="evenodd" stroke="none"/>
      <path d="M-8.5 -6.9 Q-9.05 -8.05 -8.2 -7.05 L-7.45 -5.05 -8.5 -6.9" fill="#ffe877" fill-rule="evenodd" stroke="none"/>
      <path d="M-3.3 -11.15 Q-3.3 -12.8 -2.6 -11.55 L-2.45 -7.4 Q-3.15 -9.3 -3.3 -11.15" fill="#ffe877" fill-rule="evenodd" stroke="none"/>
      <path d="M4.45 -9.55 Q4.6 -10.0 4.9 -10.2 5.3 -10.35 5.35 -9.7 5.5 -8.85 4.9 -6.85 4.25 -4.8 3.8 -5.15 3.2 -5.6 4.45 -9.55" fill="#ffe877" fill-rule="evenodd" stroke="none"/>
      <path d="M7.5 -6.0 Q7.9 -6.7 7.75 -6.0 7.65 -5.3 6.45 -3.55 L7.5 -6.0" fill="#ffe877" fill-rule="evenodd" stroke="none"/>
      <path d="M12.4 -6.45 Q13.7 -8.0 13.0 -6.15 12.65 -5.35 11.5 -4.05 10.25 -2.65 10.15 -3.15 10.0 -3.85 12.4 -6.45" fill="#ffe877" fill-rule="evenodd" stroke="none"/>
      <path d="M14.35 -1.35 L14.95 -1.35 Q15.2 -1.15 14.7 -0.8 14.1 -0.35 12.5 0.1 L11.0 0.15 Q11.15 -0.4 14.35 -1.35" fill="#ffe877" fill-rule="evenodd" stroke="none"/>
      <path d="M13.65 2.6 Q14.55 2.6 13.65 2.75 11.35 3.1 12.3 2.6 12.55 2.4 13.65 2.6" fill="#ffe877" fill-rule="evenodd" stroke="none"/>
      <path d="M-11.9 9.0 L-12.1 8.5 Q-12.05 7.85 -10.85 7.2 -6.95 5.15 -7.85 5.85 L-11.9 9.0" fill="#686767" fill-rule="evenodd" stroke="none"/>
      <path d="M3.45 2.9 Q8.75 3.7 10.65 6.2 11.65 7.5 11.55 8.6 10.4 6.65 9.25 5.75 7.65 4.55 3.45 2.9" fill="#686767" fill-rule="evenodd" stroke="none"/>
      <path d="M6.6 2.9 Q10.7 3.2 10.85 5.4 9.85 3.95 6.6 2.9" fill="#686767" fill-rule="evenodd" stroke="none"/>
    </g>
  </defs>
</svg>
